dist/svg/report-export.svg

<!-- Generated by Trend Micro Style Portal -->
<svg version="1.1" xmlns="http://www.w3.org/2000/svg" width="16" height="16" viewBox="0 0 16 16">
  <title>report-export</title>
  <path fill="rgb(34,34,34)" d="M11 7h2v-5h-10v7h8v-1h-5v-1zM12 6h-6v-1h6zM12 3v1h-6v-1zM4 3h1v1h-1zM4 5h1v1h-1zM5 8h-1v-1h1zM2 1h12v7h1v-7c-0.038-0.536-0.463-0.962-0.997-1l-0.003-0h-12c-0.536 0.038-0.962 0.464-1 0.997l-0 0.003v14c0.038 0.537 0.464 0.962 0.997 1l0.003 0h9v-1h-9zM16 12l-4-4v3h-4v2h4v3z"></path>
</svg>

<svg width="16" height="16" viewBox="0 0 16 16" fill="rgb(34, 34, 34)" xmlns="http://www.w3.org/2000/svg"><title>report-export</title><path d="M11 7H13V2H3V9H11V8H6V7H11ZM12 6H6V5H12V6ZM12 3V4H6V3H12ZM4 3H5V4H4V3ZM4 5H5V6H4V5ZM5 8H4V7H5V8ZM2 1H14V8H15V1C14.962 0.464 14.537 0.038 14.003 0H14H2C1.464 0.038 1.038 0.464 1 0.997V1V15C1.038 15.537 1.464 15.962 1.997 16H2H11V15H2V1ZM16 12L12 8V11H8V13H12V16L16 12Z" fill="rgb(34, 34, 34)" fill-opacity="1.00"/></svg>
